rospo-icon-theme-classic-common/24x24/apps/JavaFXSceneBuilder2.0.svg

<svg height="24" viewBox="0 0 24 24" width="24" xmlns="http://www.w3.org/2000/svg"><g transform="translate(0 -1028.3622)"><path d="m16.549115 1031.8622c-.886755.077-1.428167.3778-2.010133.8422-.556212-.1682-1.126026-.2585-1.48074-.1853-.795402.1652-1.349122.5043-1.842135 1.0411-.03901 0-.07878-.036-.117209-.037-.797915-.013-1.167373.2243-1.3557161.2963-.3815545.1395-.6856377.4684-.963067.7077-.3033165-.3603-.7110855-.8611-.9357182-1.115-.6002637-.7051-1.1465171-1.1726-1.6194371-1.3491-.6777616-.2472-1.4995297-.1804-2.0921799.08-.5926503.2604-1.0042379.6418-1.3459496 1.0489-.1213536.1445-.5145321.443-.7188817 1.2729-.2043494.83.091957 1.6043.3633479 2.0918.5427815.9752 1.3525399 1.9214 3.0650143 4.0881.2243142.2838.3717547.4701.5840913.7389-.4032078.1638-.565961-.013-1.1623222.5263-.5959697.6225-.8458535 1.452-.8653929 2.1522-.048081 1.7231 1.0885739 2.524 1.9984128 3.0061.3118797.1653.3370977.1512.4942311.2105.1571335.059.3463316.1274.570417.2067.4481708.1586 1.0325267.3591 1.691716.581 1.3183783.4438 2.9350623.9736 4.3152433 1.4055.656865.2055 1.181144.3593 1.834319.388.653177.029 1.533847-.2272 2.058971-.6492.454329-.3651 1.477098-1.2626 2.570784-2.2243 1.093686-.9618 1.962891-1.7097 2.434039-2.1795.157403-.157.358393-.3477.576277-.6999.217885-.3523.386257-.8895.400465-1.3295.02841-.8802-.196269-1.3104-.427814-2.01-.525162-1.5868-1.226119-3.2957-1.918319-4.7411-.3461-.7227-.686796-1.3758-1.021672-1.9339-.334875-.5581-.547145-.9805-1.179903-1.5011-.631876-.52-1.274615-.7357-1.900739-.7291z" opacity=".2"/><path d="m16.549115 1031.3622c-.886755.077-1.428167.3778-2.010133.8422-.556212-.1682-1.126026-.2585-1.48074-.1853-.795402.1652-1.349122.5043-1.842135 1.0411-.03901 0-.07878-.036-.117209-.037-.797915-.013-1.167373.2243-1.3557161.2963-.3815545.1395-.6856377.4684-.963067.7077-.3033165-.3603-.7110855-.8611-.9357182-1.115-.6002637-.7051-1.1465171-1.1726-1.6194371-1.3491-.6777616-.2472-1.4995297-.1804-2.0921799.08-.5926503.2604-1.0042379.6418-1.3459496 1.0489-.1213536.1445-.5145321.443-.7188817 1.2729-.2043494.83.091957 1.6043.3633479 2.0918.5427815.9752 1.3525399 1.9214 3.0650143 4.0881.2243142.2838.3717547.4701.5840913.7389-.4032078.1638-.565961-.013-1.1623222.5263-.5959697.6225-.8458535 1.452-.8653929 2.1522-.048081 1.7231 1.0885739 2.524 1.9984128 3.0061.3118797.1653.3370977.1512.4942311.2105.1571335.059.3463316.1274.570417.2067.4481708.1586 1.0325267.3591 1.691716.581 1.3183783.4438 2.9350623.9736 4.3152433 1.4055.656865.2055 1.181144.3593 1.834319.388.653177.029 1.533847-.2272 2.058971-.6492.454329-.3651 1.477098-1.2626 2.570784-2.2243 1.093686-.9618 1.962891-1.7097 2.434039-2.1795.157403-.157.358393-.3477.576277-.6999.217885-.3523.386257-.8895.400465-1.3295.02841-.8802-.196269-1.3104-.427814-2.01-.525162-1.5868-1.226119-3.2957-1.918319-4.7411-.3461-.7227-.686796-1.3758-1.021672-1.9339-.334875-.5581-.547145-.9805-1.179903-1.5011-.631876-.52-1.274615-.7357-1.900739-.7291z" fill="#4f4f4f"/><path d="m15.758512 1047.6512c.601482-.4843 4.457421-3.8821 4.844607-4.269.509871-.5094.514171-.6429.06457-2.0042-.983872-2.979-2.714533-6.6339-3.493562-7.2762-.324264-.2674-.922605-.2634-1.343023.01-.586295.3798-.56025.8908.107225 2.1037.240441.437.437161.9239.437161.9603 0 .036-.08351.066-.185586.066-.130677 0-.429327-.3853-1.009461-1.3022-.882749-1.3953-1.137553-1.6171-1.717553-1.4955-.437261.091-.935425.4432-1.099625.7761-.189894.3849-.11147.5794.772592 1.9165.543022.8215.691178 1.1152.606857 1.2036-.06136.064-.142497.1169-.180307.1169s-.532257-.6608-1.098755-1.4684c-.362251-.5166-.644827-.8962-.855615-1.1485-.362427-.5135-.706161-.3541-1.150648-.1839-.318154.1628-.6399513.3973-.7985933.6153-.3729785.5126-.3179105.8361.2945845 1.7309.2944458.4302.7314428 1.0345.9711058 1.3428.419573.5399.520896.9204.268276 1.0075-.14688.051-.07065.138-2.8872397-3.3073-1.7443345-2.1338-2.5634365-3.0618-2.7682585-3.1367-.3857608-.141-.8058564.044-1.2180636.536-.6094499.7275-.6810267.5987 2.7468101 4.9447 1.682649 2.1332 3.1020787 3.9368 3.1542937 4.0077.193746.2634-.4473704.099-1.3668286-.2209-.7740349-.269-1.0545829-.3205-1.5613744-.2867-.8398075.073-1.221744.5534-1.2402355 1.2175-.012915.4638.4143275.9108.9370135 1.1883.299081.1588 4.008368 1.4135 6.729245 2.2667 1.188957.3728 1.663264.3937 2.040387.09z" opacity=".2"/><path d="m15.758512 1047.1512c.601482-.4843 4.457421-3.8821 4.844607-4.269.509871-.5094.514171-.6429.06457-2.0042-.983872-2.979-2.714533-6.6339-3.493562-7.2762-.324264-.2674-.922605-.2634-1.343023.01-.586295.3798-.56025.8908.107225 2.1037.240441.437.437161.9239.437161.9603 0 .036-.08351.066-.185586.066-.130677 0-.429327-.3853-1.009461-1.3022-.882749-1.3953-1.137553-1.6171-1.717553-1.4955-.437261.091-.935425.4432-1.099625.7761-.189894.3849-.11147.5794.772592 1.9165.543022.8215.691178 1.1152.606857 1.2036-.06136.064-.142497.1169-.180307.1169s-.532257-.6608-1.098755-1.4684c-.362251-.5166-.644827-.8962-.855615-1.1485-.362427-.5135-.706161-.3541-1.150648-.1839-.318154.1628-.6399513.3973-.7985933.6153-.3729785.5126-.3179105.8361.2945845 1.7309.2944458.4302.7314428 1.0345.9711058 1.3428.419573.5399.520896.9204.268276 1.0075-.14688.051-.07065.138-2.8872397-3.3073-1.7443345-2.1338-2.5634365-3.0618-2.7682585-3.1367-.3857608-.141-.8058564.044-1.2180636.536-.6094499.7275-.6810267.5987 2.7468101 4.9447 1.682649 2.1332 3.1020787 3.9368 3.1542937 4.0077.193746.2634-.4473704.099-1.3668286-.2209-.7740349-.269-1.0545829-.3205-1.5613744-.2867-.8398075.073-1.221744.5534-1.2402355 1.2175-.012915.4638.4143275.9108.9370135 1.1883.299081.1588 4.008368 1.4135 6.729245 2.2667 1.188957.3728 1.663264.3937 2.040387.09z" fill="#fff"/><path d="m16.548828 3c-.886755.077-1.427799.3773969-2.009766.8417969-.556212-.1682-1.125754-.2587469-1.480468-.1855469-.795402.1652-1.348784.5042156-1.841797 1.0410156-.03901 0-.078759-.0361094-.117188-.0371094-.797915-.0129999-1.1671253.2248751-1.3554684.296875-.3815545.1395-.6874144.4677313-.9648437.7070313-.3033165-.3603-.7109142-.8593813-.9355469-1.1132813-.6002637-.7050999-1.1462206-1.1731093-1.6191406-1.3496093-.6777616-.2472-1.4991467-.1803219-2.0917969.0800781-.5926503.2604-1.0039914.6417281-1.3457031 1.0488281-.1213536.1445-.5144004.4435375-.71875 1.2734375-.0725762.2947805-.0692437.5753272-.0390625.8457032.0103179-.1151796.0099856-.2276024.0390625-.3457032.2043496-.8299.5973964-1.1289375.71875-1.2734375.3417117-.4071.7530528-.7884281 1.3457031-1.0488281.5926502-.2604 1.4140353-.3272781 2.0917969-.0800781.47292.1765 1.0188769.6445094 1.6191406 1.3496093.2246327.2539.6322304.7529813.9355469 1.1132813.2774293-.2393.5832892-.5675313.9648437-.7070313.1883431-.0719999.5575534-.3098749 1.3554684-.296875.038429.001.078178.0371094.117188.0371094.493013-.5368 1.046395-.8758156 1.841797-1.0410156.354714-.0732.924256.0173469 1.480468.1855469.581967-.4644 1.123011-.7647969 2.009766-.8417969.626124-.0066 1.268515.2085156 1.900391.7285156.632758.5206.844812.9438532 1.179687 1.5019532.334876.5580999.677338 1.2108937 1.023438 1.9335937.6922 1.4454 1.392806 3.1553875 1.917968 4.7421875.191355.578165.369109.985336.41211 1.601562.002236-.029677.014691-.062878.015625-.091796.02841-.8802-.196189-1.310166-.427735-2.009766-.525162-1.5868-1.225768-3.2967875-1.917968-4.7421875-.3461-.7227-.688562-1.3754938-1.023438-1.9335937-.334875-.5581-.546929-.9813532-1.179687-1.5019532-.631876-.52-1.274267-.7351156-1.900391-.7285156zm-10.8007811 9.601562c-.2140882.036377-.4286307.082277-.8300781.445313-.5959698.6225-.845695 1.452144-.8652344 2.152344-.0032574.116736.0123522.219666.0195312.328125.05224-.661685.2969076-1.407243.8457032-1.980469.5963611-.5393.7589015-.361591 1.1621093-.525391-.1207554-.152866-.2271776-.287313-.3320312-.419922z" fill="#fff" opacity=".1" transform="translate(0 1028.3622)"/></g></svg>

<svg xmlns="http://www.w3.org/2000/svg" width="24" height="24" version="1.1" viewBox="0 0 24 24">
 <g transform="translate(0,-1028.3622)">
  <path style="opacity:0.2" d="m 16.549115,1031.8622 c -0.886755,0.077 -1.428167,0.3778 -2.010133,0.8422 -0.556212,-0.1682 -1.126026,-0.2585 -1.48074,-0.1853 -0.795402,0.1652 -1.349122,0.5043 -1.842135,1.0411 -0.03901,0 -0.07878,-0.036 -0.117209,-0.037 -0.797915,-0.013 -1.167373,0.2243 -1.3557161,0.2963 -0.3815545,0.1395 -0.6856377,0.4684 -0.963067,0.7077 -0.3033165,-0.3603 -0.7110855,-0.8611 -0.9357182,-1.115 -0.6002637,-0.7051 -1.1465171,-1.1726 -1.6194371,-1.3491 -0.6777616,-0.2472 -1.4995297,-0.1804 -2.0921799,0.08 -0.5926503,0.2604 -1.0042379,0.6418 -1.3459496,1.0489 -0.1213536,0.1445 -0.5145321,0.443 -0.7188817,1.2729 -0.2043494,0.83 0.091957,1.6043 0.3633479,2.0918 0.5427815,0.9752 1.3525399,1.9214 3.0650143,4.0881 0.2243142,0.2838 0.3717547,0.4701 0.5840913,0.7389 -0.4032078,0.1638 -0.565961,-0.013 -1.1623222,0.5263 -0.5959697,0.6225 -0.8458535,1.452 -0.8653929,2.1522 -0.048081,1.7231 1.0885739,2.524 1.9984128,3.0061 0.3118797,0.1653 0.3370977,0.1512 0.4942311,0.2105 0.1571335,0.059 0.3463316,0.1274 0.570417,0.2067 0.4481708,0.1586 1.0325267,0.3591 1.691716,0.581 1.3183783,0.4438 2.9350623,0.9736 4.3152433,1.4055 0.656865,0.2055 1.181144,0.3593 1.834319,0.388 0.653177,0.029 1.533847,-0.2272 2.058971,-0.6492 0.454329,-0.3651 1.477098,-1.2626 2.570784,-2.2243 1.093686,-0.9618 1.962891,-1.7097 2.434039,-2.1795 0.157403,-0.157 0.358393,-0.3477 0.576277,-0.6999 0.217885,-0.3523 0.386257,-0.8895 0.400465,-1.3295 0.02841,-0.8802 -0.196269,-1.3104 -0.427814,-2.01 -0.525162,-1.5868 -1.226119,-3.2957 -1.918319,-4.7411 -0.3461,-0.7227 -0.686796,-1.3758 -1.021672,-1.9339 -0.334875,-0.5581 -0.547145,-0.9805 -1.179903,-1.5011 -0.631876,-0.52 -1.274615,-0.7357 -1.900739,-0.7291 z"/>
  <path style="fill:#4f4f4f" d="m 16.549115,1031.3622 c -0.886755,0.077 -1.428167,0.3778 -2.010133,0.8422 -0.556212,-0.1682 -1.126026,-0.2585 -1.48074,-0.1853 -0.795402,0.1652 -1.349122,0.5043 -1.842135,1.0411 -0.03901,0 -0.07878,-0.036 -0.117209,-0.037 -0.797915,-0.013 -1.167373,0.2243 -1.3557161,0.2963 -0.3815545,0.1395 -0.6856377,0.4684 -0.963067,0.7077 -0.3033165,-0.3603 -0.7110855,-0.8611 -0.9357182,-1.115 -0.6002637,-0.7051 -1.1465171,-1.1726 -1.6194371,-1.3491 -0.6777616,-0.2472 -1.4995297,-0.1804 -2.0921799,0.08 -0.5926503,0.2604 -1.0042379,0.6418 -1.3459496,1.0489 -0.1213536,0.1445 -0.5145321,0.443 -0.7188817,1.2729 -0.2043494,0.83 0.091957,1.6043 0.3633479,2.0918 0.5427815,0.9752 1.3525399,1.9214 3.0650143,4.0881 0.2243142,0.2838 0.3717547,0.4701 0.5840913,0.7389 -0.4032078,0.1638 -0.565961,-0.013 -1.1623222,0.5263 -0.5959697,0.6225 -0.8458535,1.452 -0.8653929,2.1522 -0.048081,1.7231 1.0885739,2.524 1.9984128,3.0061 0.3118797,0.1653 0.3370977,0.1512 0.4942311,0.2105 0.1571335,0.059 0.3463316,0.1274 0.570417,0.2067 0.4481708,0.1586 1.0325267,0.3591 1.691716,0.581 1.3183783,0.4438 2.9350623,0.9736 4.3152433,1.4055 0.656865,0.2055 1.181144,0.3593 1.834319,0.388 0.653177,0.029 1.533847,-0.2272 2.058971,-0.6492 0.454329,-0.3651 1.477098,-1.2626 2.570784,-2.2243 1.093686,-0.9618 1.962891,-1.7097 2.434039,-2.1795 0.157403,-0.157 0.358393,-0.3477 0.576277,-0.6999 0.217885,-0.3523 0.386257,-0.8895 0.400465,-1.3295 0.02841,-0.8802 -0.196269,-1.3104 -0.427814,-2.01 -0.525162,-1.5868 -1.226119,-3.2957 -1.918319,-4.7411 -0.3461,-0.7227 -0.686796,-1.3758 -1.021672,-1.9339 -0.334875,-0.5581 -0.547145,-0.9805 -1.179903,-1.5011 -0.631876,-0.52 -1.274615,-0.7357 -1.900739,-0.7291 z"/>
  <path style="opacity:0.2" d="m 15.758512,1047.6512 c 0.601482,-0.4843 4.457421,-3.8821 4.844607,-4.269 0.509871,-0.5094 0.514171,-0.6429 0.06457,-2.0042 -0.983872,-2.979 -2.714533,-6.6339 -3.493562,-7.2762 -0.324264,-0.2674 -0.922605,-0.2634 -1.343023,0.01 -0.586295,0.3798 -0.56025,0.8908 0.107225,2.1037 0.240441,0.437 0.437161,0.9239 0.437161,0.9603 0,0.036 -0.08351,0.066 -0.185586,0.066 -0.130677,0 -0.429327,-0.3853 -1.009461,-1.3022 -0.882749,-1.3953 -1.137553,-1.6171 -1.717553,-1.4955 -0.437261,0.091 -0.935425,0.4432 -1.099625,0.7761 -0.189894,0.3849 -0.11147,0.5794 0.772592,1.9165 0.543022,0.8215 0.691178,1.1152 0.606857,1.2036 -0.06136,0.064 -0.142497,0.1169 -0.180307,0.1169 -0.03781,0 -0.532257,-0.6608 -1.098755,-1.4684 -0.362251,-0.5166 -0.644827,-0.8962 -0.855615,-1.1485 -0.362427,-0.5135 -0.706161,-0.3541 -1.150648,-0.1839 -0.318154,0.1628 -0.6399513,0.3973 -0.7985933,0.6153 -0.3729785,0.5126 -0.3179105,0.8361 0.2945845,1.7309 0.2944458,0.4302 0.7314428,1.0345 0.9711058,1.3428 0.419573,0.5399 0.520896,0.9204 0.268276,1.0075 -0.14688,0.051 -0.07065,0.138 -2.8872397,-3.3073 -1.7443345,-2.1338 -2.5634365,-3.0618 -2.7682585,-3.1367 -0.3857608,-0.141 -0.8058564,0.044 -1.2180636,0.536 -0.6094499,0.7275 -0.6810267,0.5987 2.7468101,4.9447 1.682649,2.1332 3.1020787,3.9368 3.1542937,4.0077 0.193746,0.2634 -0.4473704,0.099 -1.3668286,-0.2209 -0.7740349,-0.269 -1.0545829,-0.3205 -1.5613744,-0.2867 -0.8398075,0.073 -1.221744,0.5534 -1.2402355,1.2175 -0.012915,0.4638 0.4143275,0.9108 0.9370135,1.1883 0.299081,0.1588 4.008368,1.4135 6.729245,2.2667 1.188957,0.3728 1.663264,0.3937 2.040387,0.09 z"/>
  <path style="fill:#ffffff" d="m 15.758512,1047.1512 c 0.601482,-0.4843 4.457421,-3.8821 4.844607,-4.269 0.509871,-0.5094 0.514171,-0.6429 0.06457,-2.0042 -0.983872,-2.979 -2.714533,-6.6339 -3.493562,-7.2762 -0.324264,-0.2674 -0.922605,-0.2634 -1.343023,0.01 -0.586295,0.3798 -0.56025,0.8908 0.107225,2.1037 0.240441,0.437 0.437161,0.9239 0.437161,0.9603 0,0.036 -0.08351,0.066 -0.185586,0.066 -0.130677,0 -0.429327,-0.3853 -1.009461,-1.3022 -0.882749,-1.3953 -1.137553,-1.6171 -1.717553,-1.4955 -0.437261,0.091 -0.935425,0.4432 -1.099625,0.7761 -0.189894,0.3849 -0.11147,0.5794 0.772592,1.9165 0.543022,0.8215 0.691178,1.1152 0.606857,1.2036 -0.06136,0.064 -0.142497,0.1169 -0.180307,0.1169 -0.03781,0 -0.532257,-0.6608 -1.098755,-1.4684 -0.362251,-0.5166 -0.644827,-0.8962 -0.855615,-1.1485 -0.362427,-0.5135 -0.706161,-0.3541 -1.150648,-0.1839 -0.318154,0.1628 -0.6399513,0.3973 -0.7985933,0.6153 -0.3729785,0.5126 -0.3179105,0.8361 0.2945845,1.7309 0.2944458,0.4302 0.7314428,1.0345 0.9711058,1.3428 0.419573,0.5399 0.520896,0.9204 0.268276,1.0075 -0.14688,0.051 -0.07065,0.138 -2.8872397,-3.3073 -1.7443345,-2.1338 -2.5634365,-3.0618 -2.7682585,-3.1367 -0.3857608,-0.141 -0.8058564,0.044 -1.2180636,0.536 -0.6094499,0.7275 -0.6810267,0.5987 2.7468101,4.9447 1.682649,2.1332 3.1020787,3.9368 3.1542937,4.0077 0.193746,0.2634 -0.4473704,0.099 -1.3668286,-0.2209 -0.7740349,-0.269 -1.0545829,-0.3205 -1.5613744,-0.2867 -0.8398075,0.073 -1.221744,0.5534 -1.2402355,1.2175 -0.012915,0.4638 0.4143275,0.9108 0.9370135,1.1883 0.299081,0.1588 4.008368,1.4135 6.729245,2.2667 1.188957,0.3728 1.663264,0.3937 2.040387,0.09 z"/>
  <path style="opacity:0.1;fill:#ffffff" d="M 16.548828 3 C 15.662073 3.077 15.121029 3.3773969 14.539062 3.8417969 C 13.98285 3.6735969 13.413308 3.58305 13.058594 3.65625 C 12.263192 3.82145 11.70981 4.1604656 11.216797 4.6972656 C 11.177787 4.6972656 11.138038 4.6611562 11.099609 4.6601562 C 10.301694 4.6471563 9.9324837 4.8850313 9.7441406 4.9570312 C 9.3625861 5.0965312 9.0567262 5.4247625 8.7792969 5.6640625 C 8.4759804 5.3037625 8.0683827 4.8046812 7.84375 4.5507812 C 7.2434863 3.8456813 6.6975294 3.3776719 6.2246094 3.2011719 C 5.5468478 2.9539719 4.7254627 3.02085 4.1328125 3.28125 C 3.5401622 3.54165 3.1288211 3.9229781 2.7871094 4.3300781 C 2.6657558 4.4745781 2.272709 4.7736156 2.0683594 5.6035156 C 1.9957832 5.8982961 1.9991157 6.1788428 2.0292969 6.4492188 C 2.0396148 6.3340392 2.0392825 6.2216164 2.0683594 6.1035156 C 2.272709 5.2736156 2.6657558 4.9745781 2.7871094 4.8300781 C 3.1288211 4.4229781 3.5401622 4.04165 4.1328125 3.78125 C 4.7254627 3.52085 5.5468478 3.4539719 6.2246094 3.7011719 C 6.6975294 3.8776719 7.2434863 4.3456813 7.84375 5.0507812 C 8.0683827 5.3046812 8.4759804 5.8037625 8.7792969 6.1640625 C 9.0567262 5.9247625 9.3625861 5.5965312 9.7441406 5.4570312 C 9.9324837 5.3850313 10.301694 5.1471563 11.099609 5.1601562 C 11.138038 5.1611562 11.177787 5.1972656 11.216797 5.1972656 C 11.70981 4.6604656 12.263192 4.32145 13.058594 4.15625 C 13.413308 4.08305 13.98285 4.1735969 14.539062 4.3417969 C 15.121029 3.8773969 15.662073 3.577 16.548828 3.5 C 17.174952 3.4934 17.817343 3.7085156 18.449219 4.2285156 C 19.081977 4.7491156 19.294031 5.1723688 19.628906 5.7304688 C 19.963782 6.2885687 20.306244 6.9413625 20.652344 7.6640625 C 21.344544 9.1094625 22.04515 10.81945 22.570312 12.40625 C 22.761667 12.984415 22.939421 13.391586 22.982422 14.007812 C 22.984658 13.978135 22.997113 13.944934 22.998047 13.916016 C 23.026457 13.035816 22.801858 12.60585 22.570312 11.90625 C 22.04515 10.31945 21.344544 8.6094625 20.652344 7.1640625 C 20.306244 6.4413625 19.963782 5.7885687 19.628906 5.2304688 C 19.294031 4.6723688 19.081977 4.2491156 18.449219 3.7285156 C 17.817343 3.2085156 17.174952 2.9934 16.548828 3 z M 5.7480469 12.601562 C 5.5339587 12.637939 5.3194162 12.683839 4.9179688 13.046875 C 4.321999 13.669375 4.0722738 14.499019 4.0527344 15.199219 C 4.049477 15.315955 4.0650866 15.418885 4.0722656 15.527344 C 4.1245056 14.865659 4.3691732 14.120101 4.9179688 13.546875 C 5.5143299 13.007575 5.6768703 13.185284 6.0800781 13.021484 C 5.9593227 12.868618 5.8529005 12.734171 5.7480469 12.601562 z" transform="translate(0,1028.3622)"/>
 </g>
</svg>
